X:1
T:Music, all powerful
T:Music, all powerful
T:Thomas F. Walmisley
T:© Roel Griffioen 2006
T:© Roel Griffioen 2006
T:© Roel Griffioen 2006
T:© Roel Griffioen 2006
T:© Roel Griffioen 2006
T:© Roel Griffioen 2006
T:© Roel Griffioen 2006
T:© Roel Griffioen 2006
T:© Roel Griffioen 2006
T:© Roel Griffioen 2006
T:© Roel Griffioen 2006
T:© Roel Griffioen 2006
T:© Roel Griffioen 2006
T:© Roel Griffioen 2006
C:Thomas F. Walmisley
Z:© Roel Griffioen 2006
%%score [ 1 2 3 4 ]
L:1/8
Q:1/4=90
M:4/4
K:E
V:1 treble nm="Soprano" snm="S"
V:2 treble nm="Alto" snm="A"
V:3 treble-8 nm="Tenor" snm="T"
V:4 bass nm="Bass" snm="B"
V:1
!f! G4 G2 G2 | !>!c6 c2 | !>!B6 B2 | !>!A4 A4 |"^dim." G6 B2 |!<(! F3 F G2 G2!<)! |!>(! A6 G2!>)! | %7
w: Mu- sic, all|pow'r- ful|o'er the|hu- man|mind, Can|still each men- tal|storm, each|
!<(! F4 A4!<)! |"^dim." F4 z4 |!>(! E4 D2 C2!>)! | (B,2 !>!A4) G2 | G2 F2 A2 G2 | B2!f! A2 c4- | %13
w: tu- mult|calm,|Soothe anx- ious|care _ on|sleep- less couch re-|clined, And e'en|
 c3 c B2 A2 | G4 B4 |"^dim." F6 E2 | D2!ff! F2 B4- | B8- | B4 B4 | B7!p! B |"^più moto" B4 z2 z2 || %21
w: _ fierce An- ger's|fur- ious|rage dis-|arm. fierce An-||* ger's|rage dis-|arm.|
 z8 | z8 | z8 | z2 z!f! B, B,3 B, | E E2 z z4 | z2!p! CC D2 ^E2 | F4 z4 | z2!p! DD ^E2 ^^F2 | %29
w: |||She stirs to|bat- tle,|or she lulls to|peace;|or she lulls to|
 G4 z4 | z4!p! A4- | A4 G4 | F4 (3(E2 G2 B2) | (B2 A2) G4 | F4 F4- | F4 E2 D2 | E6"^cresc." G2 | %37
w: peace;|or|_ she|lulls she _ _|lulls _ to|peace; Melts|_ the charm'd|soul to|
 !>!A6 A2 | A3 G G2!f! G2 | ^^F2 G2 ^A2 B2 | !>!c4 !>!B4 | !>!^A4 !>!B4 | ^A4 A4- | %43
w: thril- ling|ec- sta- sy, And|bids the jar- ring|world's harsh|clang- our|cease. Melts|
 A4"^dim." G2 ^^F2 |"^cresc." G6 G2 | !>!^B6 B2 | ^B3 c c2 c2 |!f! A2 G2 F2 E2 | !>!D4 !>!A4 | %49
w: _ the charm'd|soul to|thril- ling|ec- sta- sy, And|bids the jar- ring|world's harsh|
!<(! (G2 F2)!<)!!>(! (E2 D2)!>)! | C4 z4 |!p! D4 z4 | E4 z4 ||"^Tempo primo, con espressione" z8 | %54
w: clang- * our _|cease.|cease.|cease.||
 z8 | z8 | z4 z2!ff! B,2 | A6 G2 | F2 E2 z2 E>E | (F4 G2) A2 | G4 z4 |!p! G4!<(! F2 ^A2!<)! | %62
w: ||Then|burst ma-|jes- tic in the|va- * ried|swell;|Now breathe me-|
 B4 G4 | F2 D2 E2 C2 | D4 z4 | z8 | z8 |"^rit." z8 | z8 | %69
w: lo- dious|as the Gre- cian|lyre,|||||
[M:3/4]!p!"^Andante cantabile" G4 (3(AF)D | F>E E2 G2 | (F2 c2) (BA) | (A2 G2) G2 | (F3 G) ^A2 | %74
w: Oh! sure- * ly|Har- mo- ny from|heav'n _ was _|sent, _ To|cheer _ the|
 B4 G2 | F3 D CF |!>(! (E2 D2)!>)! z2 | G4 (3(AF)D | F>E E2 G2 | (F2 c2) (BA) | (A2 G2) G2 | %81
w: soul when|tired with hu- man|strife, _|Oh! sure- * ly|Har- mo- ny from|heav'n _ was _|sent, _ To|
 (F3 G) ^A2 | B4 G2 | F3 D CF |!>(! (E2 D2)!>)! B,2 |"^cresc." C4 D2 | (E3 F) G2 | %87
w: cheer _ the|soul when|tired with hu- man|strife, _ To|soothe the|way- * ward|
 A3!>(! c BG!>)! | !>!F4!p! F2 | (B2 G2) E2 | C4 C2 | (c2 A2) F2 |{E} D4 E2 | %93
w: heart by sor- row|rent, And|sof- * ten|down And|sof- * ten|down the|
!<(! (F2!<)!!>(! G2) A2!>)! | G4{G} F2 | E4 z2 |!pp! c2 F2 z2 | B2 E2 z2 | A4 A2 |"^cresc." A4 G2 | %100
w: rug- * ged|road of|life.|sof- ten,|sof- ten,|sof- ten|down the|
 A2 ^A4 | B4!p! B2 | (c6 | B4) G2 | (A2 B2) c2 | B4- BG |"^rit."!<(! (A2!<)! G2)!>(! ^^F2!>)! | %107
w: rug- ged|road And|sof-|* ten,|sof- * ten|down _ the|rug- * ged|
 G4 !fermata!F2 | E6 |] %109
w: road of|life.|
V:2
!f! E4 E2 G2 | !>!G4 F4 | !>!F4 E4 | !>!E4 D4 |"^dim." E6 E2 |!<(! E3 E B,2 B,2!<)! | %6
w: Mu- sic, all|pow'r- ful|o'er the|hu- man|mind, Can|still each men- tal|
!>(! (A,4 F2) E2!>)! |!<(! E4 E4!<)! |"^dim." (D2 E2 D2 C2) |!>(! B,4 A,2 G,2!>)! | %10
w: storm, _ each|tu- mult|calm, _ _ _|Soothe anx- ious|
 (F,2 !>!B,4) B,2 | C3 C =D3 D | C2 z2 z2!f! E2 | F3 D E2 F2 | E4 E4 |"^dim." E6 C2 | %16
w: care _ on|sleep- less couch re-|clined, And|e'en fierce An- ger's|fur- ious|rage dis-|
 D2 z2 z2 z!ff! A | =G4 G4 | (F2 !>!A4) A2 | =G7!p! G | F4 z2!f! B,2 || E4 E4 | G6 B2 | %23
w: arm. fierce|An- ger's|fur- * ious|rage dis-|arm. At|her com-|mand the|
 (AG)(FE) (DC)(B,A,) | G,2 z2 z4 | z2 z!f! B, B,3 B, | C C2!p! C C2 B,2 | A,3!f! C C3 C | %28
w: var- * ious _ pas- * sions _|lie;|She stirs to|bat- tle, or lulls to|peace; She stirs to|
 D D2!p! D D2 C2 | B,3!f! D D3 D | E E3 z4 |!p! F4 E4 | D4 E4 | B,4 B,4 | B,4 z4 | D4 C2 ^B,2 | %36
w: bat- tle, or lulls to|peace; She stirs to|bat- tle,|or she|lulls she|lulls to|peace;|Melts the charm'd|
 C6"^cresc." E2 | !>!F6 F2 | F3 E E2!f! E2 | D2 G2 ^^F2 G2 | !>!^A4 !>!G4 | !>!^^F4 !>!G4 | %42
w: soul to|thril- ling|ec- sta- sy, And|bids the jar- ring|world's harsh|clang- our|
 ^^F4 z4 | E4"^dim." E2 E2 |"^cresc." D6 D2 | !>!F6 F2 | F3 E E2 E2 |!f! F2 C2 ^B,2 C2 | %48
w: cease.|Melts the charm'd|soul to|thril- ling|ec- sta- sy, And|bids the jar- ring|
 !>!C4 !>!F4 |!<(! (E2 D2)!<)!!>(! (C2 ^B,2)!>)! | C4 z4 |!p! ^B,4 z4 | C4 z4 || %53
w: world's harsh|clang- * our _|cease.|cease.|cease.|
!p!"^dolce" G4 F3 F | E4 z2 E2 |!>(! D2 C2 B,2 A,2!>)! |{A,} G,6!ff! B,2 | B,6 B,2 | %58
w: Soft through the|dell the|dy- ing strains re-|tire, Then|burst ma-|
 A,2 G,2 z2 G,>G, | C4 B,4 | B,4!p! E4- | E4!<(! D2 C2!<)! | D4 E4 | D2 B,2 C2 F,2 | B,4 z4 | %65
w: jes- tic in the|va- ried|swell; Now|_ breathe me-|lo- dious|as the Gre- cian|lyre,|
 D4 E2 F2 | E3"^dim." G F2 E2 | (D2 F2) (E2 C2) | D8 |[M:3/4]!p! E2 E2 D2 | D>E E2 E2 | E4 D2 | %72
w: Or on the|ear in sink- ing|ca- * dence _|dwell.|Oh! sure- ly|Har- mo- ny from|heav'n was|
 (D2 E2) E2 | F4 E2 | D4 E2 | D3 B, ^A,A, |!>(! (^A,2 B,2)!>)! z2 | E2 E2 D2 | D>E E2 E2 | E4 D2 | %80
w: sent, _ To|cheer the|soul when|tired with hu- man|strife, _|Oh! sure- ly|Har- mo- ny from|heav'n was|
 (D2 E2) E2 | F4 E2 | D4 E2 | D3 B, ^A,A, |!>(! (^A,2 B,2)!>)! z2 | z2 z2 B,2 | (E3 D) E2 | %87
w: sent, _ To|cheer the|soul when|tired with hu- man|strife, _|the|way- * ward|
 F3!>(! F GE!>)! | !>!D4!p! D2 | E4 E,2 | E,4 A,2 | (A,2 C2) C2 | B,4 E2 |!<(! E4!<)!!>(! E2!>)! | %94
w: heart by sor- row|rent, And|sof- ten|down And|sof- * ten|down the|rug- ged|
 E4 D2 | E4 z2 |!pp! F2 F2 z2 | E2 E2 z2 | (C2 FE) (DC) |"^cresc." B,4 B,2 | (E2- E=G) (FE) | %101
w: road of|life.|sof- ten,|sof- ten,|sof- * * ten _|down the|rug- * * ged _|
 D4!p! F2 | (G2 AB AG | F2 G2) E2 | (A2 G2) =G2 | (F2 ^G3) E |!<(! E4!<)!!>(! E2!>)! | %107
w: road And|sof- * * * *|* * ten,|sof- * ten|down _ the|rug- ged|
 E4 !fermata!D2 | E6 |] %109
w: road of|life.|
V:3
!f! B4 B2 e2 | !>!e4 d4 | (!>!d4 e2) B2 | !>!c4 B4 |"^dim." B6 B2 |!<(! c3 c c2 c2!<)! | %6
w: Mu- sic, all|pow'r- ful|o'er _ the|hu- man|mind, Can|still each men- tal|
!>(! (c2 =c2 B2) B2!>)! |!<(! c4 c4!<)! |"^dim." (B2 c2 B2 A2) | G4 z4 | z2 !>!d4 e2 | c3 c B3 B | %12
w: storm, _ _ each|tu- mult|calm, _ _ _|Soothe|care on|sleep- less couch re-|
 e2 z2 z4 | z4 z2!f! B2 | B4 B4 |"^dim." c4 ^A4 | B4 z2 z!ff! f | e4 e4 | (d2 !>!f4) f2 | e7!p! e | %20
w: clined,|And|An- ger's|rage dis-|arm. fierce|An- ger's|fur- * ious|rage dis-|
 d4 z2 z2 || z8 | z2!f! B2 e2 g2 | (fe)(dc) (BA)(GF) | E2 z2 z4 | z2 z!f! G G3 G | A A2 z z4 | %27
w: arm.||At her com-|mand _ the _ pas- * sions _|lie;|She stirs to|bat- tle,|
 z2 z!f! ^A A3 A | B B2 z z4 | z2 z!f! ^B B3 B | c c3 z4 |!p! B4 B4 | B8 | z4 e4 | d4 z4 | z8 | %36
w: She stirs to|bat- tle,|She stirs to|bat- tle,|or she|lulls|to|peace;||
 z4 z2"^cresc." e2 | !>!d6 d2 | d3 e e2!f! c2 | d2 d2 d2 d2 | !>!d4 !>!d4 | !>!d4 !>!d4 | d4 z4 | %43
w: to|thril- ling|ec- sta- sy, And|bids the jar- ring|world's harsh|clang- our|cease.|
 c4"^dim." c2 c2 |"^cresc." B6 d2 | !>!d6 d2 | d3 c c2 c2 |!f! c2 c2 G2 G2 | !>!A4 !>!c4 | %49
w: Melts the charm'd|soul to|thril- ling|ec- sta- sy, And|bids the jar- ring|world's harsh|
!<(! (c2 ^B2)!<)!!>(! (c2 G2)!>)! |!p! G8- | G8- | G4 z4 ||!p!"^dolce" e4 B3 B | G4 z2 G2 | %55
w: clang- * our _|cease.|_||Soft through the|dell the|
!>(! B2 A2 G2 F2!>)! |{F} E6!ff! G2 | F6 G2 | D2 E2 z2 E>E | E6 D2 | E4 z4 | z8 | z8 | z8 | z8 | %65
w: dy- ing strains re-|tire, Then|burst ma-|jes- tic in the|va- ried|swell;|||||
!p! ^B4 c2 d2 | c3"^dim." e d2 c2 | (^B2 d2) (c2 ^A2) | ^B8 |[M:3/4]!p! =B2 B2 B2 | B>B B2 B2 | %71
w: Or on the|ear in sink- ing|ca- * dence _|dwell.|Oh! sure- ly|Har- mo- ny from|
 c4 (fB) | B4 B2 | (B2 F2) F2 | (F2 B2) B2 | B3 d ec |!>(! (c2 B2)!>)! B2- | B2 B2 B2 | B>B B2 B2 | %79
w: heav'n was _|sent, To|cheer _ the|soul _ when|tired with hu- man|strife, _ Oh!|_ sure- ly|Har- mo- ny from|
 c4 (fB) | B4 B2 | (B2 F2) F2 | (F2 B2) B2 | B3 d ec |!>(! (c2 B2)!>)! z2 | z2 z2 B2 | B4 B2 | %87
w: heav'n was _|sent, To|cheer _ the|soul _ when|tired with hu- man|strife, _|the|way- ward|
 B3!>(! A GB!>)! | !>!B4!p! B2 | (B6- | B2 AG F^E | F3 G) A2 | A4 G2 |!<(! (c2!<)!!>(! B2) A2!>)! | %94
w: heart by sor- row|rent, And|sof-||* * ten|down the|rug- * ged|
 B4 A2 | G2 z2 z2 |!pp! e2 d2 z2 | =d2 c2 z2 | c4 (de) |"^cresc." f4 B2 | A2 E4 | F4!p! d2 | %102
w: road of|life.|sof- ten,|sof- ten,|sof- ten _|down the|rug- ged|road And|
 (e^e fg f=e | d2 e2) e2 | e4 e2 | (d2 e3) B |!<(! (A2!<)! B2)!>(! c2!>)! | B4 !fermata!A2 | G6 |] %109
w: sof- * * * * *|* * ten,|sof- ten|down _ the|rug- * ged|road of|life.|
V:4
!f! E,4 E,2 E,2 | !>!A,6 A,2 | !>!G,6 G,2 | !>!F,6 B,,2 |"^dim." E,6 G,2 | %5
w: Mu- sic, all|pow'r- ful|o'er the|hu- man|mind, Can|
!<(! A,3 A, ^E,2 E,2!<)! |!>(! (F,2 E,2 D,2) E,2!>)! |!<(! A,4 F,4!<)! |"^dim." B,4 z4 | %9
w: still each men- tal|storm, _ _ each|tu- mult|calm,|
!>(! G,4 F,2 E,2!>)! | (D,2 !>!F,4) E,2 | A,3 A, B,3 B, | C4 z2!f! C,2 | D,3 B,, C,2 D,2 | %14
w: Soothe anx- ious|care _ on|sleep- less couch re-|clined, And|e'en fierce An- ger's|
 E,3 F, G,2 E,2 |"^dim." A,2 z2 z2 F,2 | B,4 z4 | z2 z!ff! B,, (E,F,)(=G,A,) | B,3 C D2 z B, | %19
w: fur- ious rage dis-|arm. dis-|arm.|fierce An- * ger's _|fur- ious rage fierce|
 E2 B,2 =G,2!p! E,2 | B,,4 z2 z2 || z2!f! B,2 G,2 B,2 | E,6 E,2 | B,2 B,,2 C,2 D,2 | E,2 z2 z4 | %25
w: An- ger's rage dis-|arm.|At her com-|mand the|var- ious pas- sions|lie;|
 z2 z!f! E, E,3 E, | A, A,2 z z4 | z2 z!f! F, F,3 F, | B, B,2 z z4 | z2 z!f! G, G,3 G, | C C3 z4 | %31
w: She stirs to|bat- tle,|She stirs to|bat- tle,|She stirs to|bat- tle,|
!p! D,4 E,4 | A,4 G,4 | F,4 E,4 | B,4 z4 | z4 z2 G,2 | C,2"^cresc." G,2 (C4 | !>!^B,6) B,2 | %38
w: or she|lulls she|lulls to|peace;|the|soul to thril-|* ling|
 ^B,3 C C2!f! C2 | C2 B,2 ^A,2 G,2 | !>!^^F,4 !>!G,4 | !>!D,4 !>!G,4 | D,4 z4 | z8 | %44
w: ec- sta- sy, And|bids the jar- ring|world's harsh|clang- our|cease.||
"^cresc." z4 z2 B,2 | !>!G,6 G,2 | C,3 C, C,2 C,2 |!f! F,2 E,2 D,2 C,2 | !>!F,4 !>!D,4 | %49
w: to|thril- ling|ec- sta- sy, And|bids the jar- ring|world's harsh|
!<(! G,6!<)!!>(! G,,2!>)! | C,4 z4 | z8 |!p! C,4 z4 || z8 | z8 | z8 | z4 z2!ff! E,2 | D,6 E,2 | %58
w: clang- our|cease.||cease.||||Then|burst ma-|
 B,,2 C,2 z2 C,>C, | A,,4 B,,4 | E,4 z4 | z8 | z8 | z8 | z4!p! G,4- | G,4 G,2 G,2 | %66
w: jes- tic in the|va- ried|swell;||||Or|_ on the|
 C3"^dim." C, C,2 C,2 | G,4 G,4 | G,8 |[M:3/4]!p! E,2 E,2 F,2 | G,>G, G,2 E,2 | A,4 B,2 | E,4 E,2 | %73
w: ear in sink- ing|ca- dence|dwell.|Oh! sure- ly|Har- mo- ny from|heav'n was|sent, To|
 D,4 C,2 | B,,4 E,2 | F,3 F, F,F, |!>(! B,,4!>)! z2 | E,2 E,2 F,2 | G,>G, G,2 E,2 | A,4 B,2 | %80
w: cheer the|soul when|tired with hu- man|strife,|Oh! sure- ly|Har- mo- ny from|heav'n was|
 E,4 E,2 | D,4 C,2 | B,,4 E,2 | F,3 F, F,F, |!>(! B,,4!>)! B,2- | B,2"^cresc." ^A,2 =A,2 | %86
w: sent, To|cheer the|soul when|tired with hu- man|strife, To|_ soothe the|
 (G,3 F,) E,2 | D,3!>(! D, E,G,!>)! | !>!B,4!p! (B,A,) | G,4 G,,2 | (A,,6- | A,,6 | B,,4) C,2 | %93
w: way- * ward|heart by sor- row|rent, And _|sof- ten|down|_|* the|
!<(! (A,,2!<)!!>(! B,,2) =C,2!>)! | B,,4 B,,2 | ^C,2!p! (C2 B,2 | ^A,2 B,2) =A,2 | G,2 (A,2 G,2 | %98
w: rug- * ged|road of|life. sof- *|* * ten|down sof- *|
 F,2 A,G,) (F,E,) |"^cresc." D,4 =D,2 | C,2 =C,4 | B,,4!p! (B,2- | B,2 A,4- | A,2) G,2 =D2 | %104
w: * * * ten _|down the|rug- ged|road sof-||* ten, And|
 (C2 B,2) ^A,2 | (=A,2 G,F,) (E,=D,) |!<(! (C,2!<)! B,,2)!>(! ^A,,2!>)! | B,,4 !fermata!B,,2 | %108
w: sof- * ten|down _ _ the _|rug- * ged|road of|
 E,6 |] %109
w: life.|

